public/images/easy-to-customize.svg

<svg width="113" height="110" viewBox="0 0 113 110" fill="none" xmlns="http://www.w3.org/2000/svg">
<path d="M66.2614 0.499193C67.2525 -0.368945 68.7976 -0.0582676 69.3761 1.12547L74.7757 12.1741C75.1987 13.0397 76.1788 13.4807 77.1072 13.2231L88.9572 9.93627C90.2268 9.58411 91.4841 10.5344 91.4918 11.8519L91.5628 24.1492C91.5684 25.1126 92.26 25.9352 93.2082 26.106L105.311 28.2861C106.608 28.5197 107.328 29.9214 106.763 31.1118L101.492 42.2221C101.079 43.0925 101.345 44.1337 102.125 44.699L112.083 51.9144C113.15 52.6874 113.191 54.2629 112.166 55.0903L102.596 62.8131C101.846 63.4182 101.634 64.4717 102.092 65.3196L107.933 76.1411C108.559 77.3005 107.912 78.7378 106.629 79.0384L94.6563 81.844C93.7183 82.0639 93.0703 82.9212 93.1147 83.8836L93.6823 96.168C93.7432 97.4841 92.5369 98.4984 91.2507 98.2127L79.246 95.5455C78.3054 95.3366 77.3496 95.8279 76.9721 96.7143L72.1535 108.028C71.6373 109.241 70.1103 109.631 69.0755 108.816L59.4168 101.204C58.6601 100.608 57.5858 100.635 56.8611 101.27L47.6107 109.373C46.6196 110.241 45.0745 109.931 44.496 108.747L39.0964 97.6983C38.6733 96.8327 37.6933 96.3917 36.7649 96.6492L24.9149 99.9361C23.6453 100.288 22.3879 99.3379 22.3803 98.0204L22.3093 85.7232C22.3037 84.7598 21.612 83.9372 20.6639 83.7664L8.56122 81.5862C7.26455 81.3527 6.54408 79.9509 7.10887 78.7606L12.3804 67.6503C12.7934 66.7799 12.5271 65.7387 11.747 65.1734L1.7888 57.958C0.721894 57.185 0.680962 55.6094 1.70629 54.782L11.2764 47.0593C12.0261 46.4542 12.238 45.4006 11.7803 44.5528L5.93897 33.7313C5.31314 32.5719 5.95985 31.1346 7.24264 30.834L19.2158 28.0283C20.1538 27.8085 20.8018 26.9512 20.7573 25.9888L20.1897 13.7044C20.1289 12.3883 21.3352 11.374 22.6214 11.6597L34.6261 14.3268C35.5666 14.5358 36.5224 14.0445 36.9 13.1581L41.7186 1.84403C42.2348 0.631852 43.7617 0.241357 44.7966 1.05686L54.4552 8.66851C55.2119 9.26484 56.2863 9.23693 57.011 8.60211L66.2614 0.499193Z" fill="#CADBFC"/>
<path d="M30.6432 49.5936L21.9958 46.338L24.1859 40.5207L25.7844 41.1224L24.2602 45.171L26.0159 45.832L27.1356 42.8578L28.6423 43.4251L27.5226 46.3993L29.7107 47.223L31.2941 43.0172L32.8926 43.619L30.6432 49.5936Z" fill="#739FF3"/>
<path d="M37.0572 37.9755L35.7946 37.6235L33.4232 40.5671L34.0359 41.7259L32.7624 43.3067L28.0269 34.1884L28.4222 33.6978L38.3307 36.3946L37.0572 37.9755ZM34.1717 37.161L30.9675 36.1619L32.6259 39.0798L34.1717 37.161Z" fill="#739FF3"/>
<path d="M38.4299 33.9508L38.9703 32.4134C40.0107 32.7969 40.8883 32.7507 41.6029 32.2747C41.9447 32.047 42.1635 31.7947 42.2594 31.5178C42.3501 31.2331 42.3075 30.9586 42.1316 30.6945C41.9867 30.477 41.8095 30.354 41.5998 30.3255C41.385 30.2891 41.0238 30.311 40.5165 30.391L39.4408 30.5692C37.8306 30.8456 36.7176 30.5215 36.1019 29.5972C35.6673 28.9447 35.5588 28.2599 35.7766 27.543C35.9891 26.8183 36.4644 26.2101 37.2023 25.7186C37.7771 25.3357 38.37 25.1314 38.9809 25.1058C39.5867 25.0724 40.1639 25.1982 40.7125 25.4831L40.1916 27.0244C39.4022 26.698 38.7162 26.7287 38.1336 27.1168C37.854 27.3031 37.6688 27.5217 37.5781 27.7728C37.4874 28.0239 37.5197 28.2659 37.6749 28.4989C37.8043 28.6931 37.9725 28.811 38.1796 28.8525C38.3892 28.881 38.7167 28.8592 39.162 28.7869L40.292 28.5893C41.1488 28.4447 41.8452 28.4462 42.381 28.594C42.9116 28.734 43.3476 29.0603 43.6891 29.573C44.1496 30.2643 44.2697 30.9918 44.0494 31.7553C43.8238 32.5111 43.3188 33.1503 42.5343 33.6729C41.8895 34.1023 41.206 34.3389 40.4838 34.3826C39.7693 34.4212 39.0847 34.2772 38.4299 33.9508Z" fill="#739FF3"/>
<path d="M50.4734 20.4502L48.9642 26.7098L49.9687 30.2084L48.1521 30.73L47.1514 27.2448L42.5341 22.7297L44.5526 22.1502L47.5294 25.1117L48.4684 21.0259L50.4734 20.4502Z" fill="#739FF3"/>
<path d="M61.5331 29.6296L63.0553 22.253L60.1622 21.656L60.5074 19.9833L68.1582 21.5621L67.813 23.2348L64.9063 22.635L63.3841 30.0116L61.5331 29.6296Z" fill="#739FF3"/>
<path d="M68.7284 26.3799C69.3914 25.2429 70.3842 24.5171 71.7068 24.2023C73.0375 23.8924 74.2673 24.0938 75.3961 24.8063C76.5539 25.4709 77.307 26.4638 77.6553 27.7849C78.0116 29.1109 77.8423 30.3327 77.1474 31.4504C76.4844 32.5873 75.4836 33.3084 74.1449 33.6135C72.8143 33.9234 71.5845 33.722 70.4556 33.0095C69.2979 32.3449 68.5448 31.352 68.1965 30.0309C67.8561 28.7146 68.0334 27.4976 68.7284 26.3799ZM75.4804 30.4464C75.933 29.6948 76.0623 28.9283 75.8684 28.1469C75.6872 27.3623 75.2328 26.7509 74.5053 26.3127C73.7697 25.8697 73.0152 25.7476 72.2418 25.9463C71.4683 26.1451 70.8529 26.6243 70.3954 27.3839C69.9379 28.1434 69.8022 28.9115 69.9882 29.6881C70.1742 30.4648 70.6349 31.0746 71.3705 31.5176C72.0981 31.9558 72.8486 32.0755 73.622 31.8767C74.4035 31.6827 75.0229 31.2059 75.4804 30.4464Z" fill="#739FF3"/>
<path d="M29.4471 71.0837C30.4714 70.2424 31.6576 69.9108 33.0057 70.0888C34.3611 70.261 35.447 70.8811 36.2634 71.949C36.8106 72.6348 37.145 73.383 37.2664 74.1935C37.401 75.0056 37.3155 75.7963 37.0099 76.5655L35.3314 76.0781C35.7278 74.9139 35.5825 73.9014 34.8956 73.0406C34.36 72.3694 33.6885 71.9918 32.881 71.9078C32.0794 71.831 31.3358 72.0662 30.65 72.6135C29.9643 73.1607 29.5735 73.8308 29.4778 74.6236C29.388 75.4237 29.6108 76.1594 30.1464 76.8305C30.8334 77.6913 31.7884 78.0576 33.0115 77.9294L33.1143 79.6743C32.3023 79.8089 31.5116 79.7234 30.7424 79.4178C29.9804 79.1064 29.3229 78.6042 28.7698 77.9111C27.9038 76.8708 27.5336 75.6736 27.6591 74.3197C27.7977 72.9672 28.3938 71.8885 29.4471 71.0837Z" fill="#739FF3"/>
<path d="M37.047 80.5047L39.827 75.8543L41.4492 76.824L38.5974 81.5946C38.2574 82.1634 38.1518 82.7038 38.2807 83.2158C38.4144 83.7198 38.7415 84.1274 39.2623 84.4387C39.791 84.7548 40.305 84.85 40.8042 84.7243C41.3162 84.5954 41.7422 84.2466 42.0822 83.6778L44.934 78.9073L46.5563 79.877L43.7763 84.5274C43.1585 85.5609 42.3464 86.2008 41.34 86.4474C40.3336 86.6939 39.3417 86.525 38.3643 85.9408C37.379 85.3517 36.7566 84.5556 36.4973 83.5524C36.246 82.554 36.4292 81.5381 37.047 80.5047Z" fill="#739FF3"/>
<path d="M46.2814 87.3431L47.7648 86.6683C48.2086 87.6845 48.8496 88.2856 49.6879 88.4715C50.0889 88.5604 50.4224 88.5436 50.6886 88.421C50.9568 88.2893 51.1253 88.0685 51.194 87.7587C51.2506 87.5036 51.2166 87.2905 51.092 87.1194C50.9694 86.9393 50.7036 86.6939 50.2945 86.3833L49.4211 85.7307C48.1066 84.7604 47.5697 83.7331 47.8102 82.6488C47.9799 81.8834 48.3988 81.331 49.0668 80.9915C49.7368 80.643 50.5047 80.5648 51.3703 80.7567C52.0446 80.9063 52.6025 81.1926 53.0441 81.6155C53.4876 82.0294 53.7966 82.5329 53.971 83.1261L52.4983 83.8176C52.1872 83.022 51.6899 82.5485 51.0065 82.3969C50.6785 82.3241 50.3925 82.342 50.1486 82.4504C49.9047 82.5588 49.7524 82.7497 49.6918 83.0231C49.6412 83.2509 49.6727 83.4538 49.7862 83.6319C49.9108 83.803 50.1533 84.0241 50.5138 84.2952L51.4389 84.9736C52.1366 85.4917 52.6176 85.9951 52.8821 86.484C53.1485 86.9637 53.215 87.5043 53.0817 88.1056C52.9018 88.9166 52.4602 89.507 51.7567 89.8768C51.0553 90.2375 50.2445 90.3157 49.3242 90.1116C48.5679 89.9439 47.9239 89.6146 47.3922 89.1239C46.8696 88.6351 46.4994 88.0415 46.2814 87.3431Z" fill="#739FF3"/>
<path d="M58.0387 90.6542L57.5224 83.1399L54.5753 83.3424L54.4582 81.6384L62.2519 81.1029L62.369 82.8069L59.4079 83.0103L59.9243 90.5246L58.0387 90.6542Z" fill="#739FF3"/>
<path d="M64.0888 85.6319C63.5469 84.4325 63.5313 83.2027 64.0418 81.9426C64.561 80.6788 65.4381 79.7937 66.6733 79.2872C67.8861 78.7293 69.1316 78.6915 70.41 79.1738C71.6968 79.6524 72.5941 80.4988 73.1017 81.7131C73.6436 82.9125 73.6506 84.146 73.1229 85.4135C72.6038 86.6773 71.7267 87.5625 70.4915 88.069C69.2787 88.6269 68.0332 88.6646 66.7548 88.1824C65.4851 87.6963 64.5964 86.8462 64.0888 85.6319ZM71.3171 82.4891C70.9673 81.6845 70.4178 81.1347 69.6687 80.8395C68.9244 80.5322 68.1628 80.5478 67.3839 80.8865C66.5964 81.2288 66.0594 81.7727 65.7729 82.5181C65.4863 83.2635 65.5198 84.0428 65.8734 84.856C66.2269 85.6691 66.774 86.2251 67.5146 86.5239C68.2551 86.8227 69.0191 86.8009 69.8066 86.4586C70.5855 86.1199 71.1182 85.5779 71.4048 84.8325C71.6999 84.0833 71.6706 83.3022 71.3171 82.4891Z" fill="#739FF3"/>
<path d="M78.1027 70.7178L78.5299 70.274L85.3075 76.799L83.9966 78.1605L80.4465 74.7427L80.9325 78.4365L80.5053 78.8803L76.7956 78.5349L80.3458 81.9527L79.035 83.3143L72.2574 76.7894L72.6846 76.3456L78.9942 76.9981L78.1027 70.7178Z" fill="#739FF3"/>
<path d="M87.9149 72.6014L79.7216 68.3296L80.5954 66.6537L88.7887 70.9255L87.9149 72.6014Z" fill="#739FF3"/>
<path d="M89.7464 63.9333L90.8193 59.4109L92.4812 59.8051L90.7361 67.161L90.2458 67.0446L84.4772 60.9135L83.5465 64.8366L81.8846 64.4424L83.4875 57.6859L83.9779 57.8022L89.7464 63.9333Z" fill="#739FF3"/>
<path d="M92.8571 54.1772L83.6556 55.0202L83.0885 48.8301L84.7894 48.6743L85.1841 52.9822L87.0523 52.8111L86.7623 49.6464L88.3656 49.4995L88.6555 52.6642L90.9838 52.4509L90.5738 47.9757L92.2747 47.8198L92.8571 54.1772Z" fill="#739FF3"/>
<g clip-path="url(#clip0)">
<path d="M69.3638 64.3912L64.2325 59.26L66.7491 56.7434C66.9671 56.5254 67.0567 56.21 66.9858 55.9099C66.915 55.6097 66.6938 55.3677 66.4013 55.2702L51.302 50.2371C50.9824 50.1305 50.6298 50.2137 50.3915 50.4521C50.1532 50.6904 50.07 51.0428 50.1766 51.3626L55.2097 66.4619C55.3072 66.7544 55.5492 66.9756 55.8493 67.0465C56.1494 67.1175 56.4648 67.0278 56.6829 66.8097L59.1995 64.2931L64.3308 69.4244C64.5045 69.5981 64.7322 69.685 64.9599 69.685C65.1875 69.685 65.4153 69.5982 65.589 69.4244L69.3638 65.6495C69.7113 65.302 69.7113 64.7387 69.3638 64.3912ZM64.9598 67.5369L59.8285 62.4057C59.4811 62.0582 58.9177 62.0582 58.5703 62.4057L56.4425 64.5334L52.4274 52.488L64.4728 56.5032L62.3451 58.6309C61.9979 58.978 61.9976 59.5417 62.3451 59.8891L67.4764 65.0204L64.9598 67.5369Z" fill="#739FF3"/>
<path d="M50.8214 46.4343C51.3127 46.4343 51.7111 46.0359 51.7111 45.5446V40.2061C51.7111 39.7148 51.3127 39.3164 50.8214 39.3164C50.33 39.3164 49.9316 39.7148 49.9316 40.2061V45.5446C49.9316 46.0359 50.33 46.4343 50.8214 46.4343Z" fill="#739FF3"/>
<path d="M43.8997 42.7059C43.5523 42.3584 42.9889 42.3584 42.6415 42.7059C42.294 43.0534 42.294 43.6167 42.6415 43.9642L46.4163 47.739C46.7637 48.0865 47.3272 48.0865 47.6746 47.739C48.022 47.3916 48.022 46.8282 47.6746 46.4808L43.8997 42.7059Z" fill="#739FF3"/>
<path d="M46.4173 54.0262L42.6424 57.8011C42.295 58.1486 42.295 58.7119 42.6424 59.0593C42.9899 59.4068 43.5533 59.4068 43.9007 59.0593L47.6756 55.2845C48.023 54.937 48.023 54.3737 47.6756 54.0262C47.3281 53.6788 46.7647 53.6788 46.4173 54.0262Z" fill="#739FF3"/>
<path d="M55.2249 47.739L58.9998 43.9642C59.3472 43.6167 59.3472 43.0534 58.9998 42.7059C58.6524 42.3584 58.089 42.3584 57.7415 42.7059L53.9667 46.4808C53.6192 46.8282 53.6192 47.3916 53.9667 47.739C54.3141 48.0865 54.8775 48.0865 55.2249 47.739Z" fill="#739FF3"/>
<path d="M46.3718 50.8819C46.3718 50.3906 45.9734 49.9922 45.4821 49.9922H40.1436C39.6523 49.9922 39.2539 50.3906 39.2539 50.8819C39.2539 51.3733 39.6523 51.7717 40.1436 51.7717H45.4821C45.9734 51.7717 46.3718 51.3733 46.3718 50.8819Z" fill="#739FF3"/>
</g>
<defs>
<clipPath id="clip0">
<rect width="30.3696" height="30.3696" fill="white" transform="translate(39.2539 39.3164)"/>
</clipPath>
</defs>
</svg>

<svg width="113" height="110" fill="none" xmlns="http://www.w3.org/2000/svg"><path d="M66.261.5a2 2 0 013.115.625l5.4 11.05a2 2 0 002.331 1.048l11.85-3.287a2 2 0 012.535 1.916l.07 12.297a2 2 0 001.646 1.957l12.103 2.18a2 2 0 011.452 2.826l-5.271 11.11a2 2 0 00.633 2.477l9.958 7.215a2 2 0 01.083 3.176l-9.57 7.723a2 2 0 00-.504 2.507l5.841 10.821a2 2 0 01-1.304 2.897l-11.973 2.806a2 2 0 00-1.541 2.04l.567 12.284a2 2 0 01-2.431 2.045l-12.005-2.667a2 2 0 00-2.274 1.168l-4.819 11.314a2 2 0 01-3.078.788l-9.658-7.612a2 2 0 00-2.556.066l-9.25 8.103a2 2 0 01-3.115-.626l-5.4-11.049a2 2 0 00-2.331-1.049l-11.85 3.287a2 2 0 01-2.535-1.916l-.07-12.297a2 2 0 00-1.646-1.957L8.56 81.586a2 2 0 01-1.452-2.825l5.271-11.11a2 2 0 00-.633-2.478l-9.958-7.215a2 2 0 01-.083-3.176l9.57-7.723a2 2 0 00.504-2.506L5.94 33.73a2 2 0 011.304-2.897l11.973-2.806a2 2 0 001.541-2.04l-.567-12.284a2 2 0 012.431-2.044l12.005 2.667a2 2 0 002.274-1.169L41.72 1.843a2 2 0 013.078-.787l9.658 7.612a2 2 0 002.556-.067L66.261.5z" fill="#CADBFC"/><path d="M30.643 49.594l-8.647-3.256 2.19-5.817 1.598.601-1.524 4.049 1.756.661 1.12-2.974 1.506.567-1.12 2.974 2.189.824 1.583-4.206 1.599.602-2.25 5.975zm6.414-11.619l-1.262-.352-2.372 2.944.613 1.159-1.274 1.58-4.735-9.118.395-.49 9.909 2.697-1.274 1.58zm-2.885-.814l-3.204-1 1.658 2.919 1.546-1.919zm4.258-3.211l.54-1.537c1.04.384 1.918.338 2.633-.138.342-.228.56-.48.656-.757a.918.918 0 00-.127-.823c-.145-.218-.322-.341-.532-.37-.215-.036-.576-.014-1.084.066l-1.075.178c-1.61.277-2.723-.047-3.34-.972-.434-.652-.542-1.337-.324-2.054.212-.725.687-1.333 1.425-1.824.575-.383 1.168-.588 1.779-.613a3.3 3.3 0 011.731.377l-.52 1.541c-.79-.326-1.476-.295-2.058.093-.28.186-.465.405-.556.656a.773.773 0 00.097.726.78.78 0 00.505.354c.21.028.537.006.982-.066l1.13-.198c.857-.144 1.553-.143 2.089.005.53.14.967.466 1.308.979.46.691.58 1.419.36 2.182-.225.756-.73 1.395-1.515 1.918a4.098 4.098 0 01-2.05.71 4.043 4.043 0 01-2.054-.432zm12.043-13.5l-1.509 6.26 1.005 3.498-1.817.522-1-3.485-4.618-4.515 2.019-.58 2.976 2.962.94-4.086 2.004-.576zm11.06 9.18l1.522-7.377-2.893-.597.345-1.673 7.651 1.58-.345 1.672-2.907-.6-1.522 7.377-1.85-.382zm7.195-3.25c.663-1.137 1.656-1.863 2.979-2.178 1.33-.31 2.56-.108 3.69.604 1.157.665 1.91 1.658 2.258 2.979.357 1.326.187 2.548-.508 3.665-.663 1.137-1.663 1.858-3.002 2.164-1.33.31-2.56.108-3.69-.604-1.157-.665-1.91-1.658-2.258-2.98-.34-1.315-.164-2.532.531-3.65zm6.752 4.066c.453-.751.582-1.518.388-2.3-.18-.784-.635-1.395-1.363-1.833-.735-.443-1.49-.565-2.263-.367-.774.2-1.39.678-1.847 1.438-.457.76-.593 1.527-.407 2.304.186.777.647 1.387 1.383 1.83.727.438 1.478.557 2.251.359.781-.194 1.4-.671 1.858-1.43zM29.447 71.084c1.024-.842 2.21-1.173 3.559-.995 1.355.172 2.441.792 3.257 1.86.548.686.882 1.434 1.003 2.245.135.812.05 1.602-.256 2.371l-1.679-.487c.397-1.164.252-2.177-.435-3.037-.536-.672-1.208-1.05-2.015-1.133-.802-.077-1.545.158-2.231.706-.686.547-1.076 1.217-1.172 2.01-.09.8.133 1.535.668 2.207.687.86 1.642 1.227 2.865 1.098l.103 1.745a4.373 4.373 0 01-2.372-.256c-.762-.312-1.42-.814-1.972-1.507-.866-1.04-1.236-2.237-1.11-3.591.138-1.353.734-2.431 1.787-3.236zm7.6 9.421l2.78-4.65 1.622.969-2.852 4.77c-.34.57-.445 1.11-.316 1.622.133.504.46.911.981 1.223.529.316 1.043.411 1.542.285.512-.129.938-.477 1.278-1.046l2.852-4.77 1.622.969-2.78 4.65c-.618 1.034-1.43 1.674-2.436 1.92-1.006.247-1.998.078-2.976-.506-.985-.59-1.607-1.385-1.867-2.389-.251-.998-.068-2.014.55-3.047zm9.234 6.838l1.484-.675c.444 1.016 1.085 1.618 1.923 1.803.4.09.734.073 1-.05a.917.917 0 00.506-.662c.057-.255.023-.469-.102-.64-.123-.18-.388-.425-.797-.736l-.874-.652c-1.314-.97-1.851-1.998-1.61-3.082.169-.766.588-1.318 1.256-1.657.67-.349 1.438-.427 2.303-.235.675.15 1.233.436 1.674.858a3.3 3.3 0 01.927 1.511l-1.473.692c-.31-.796-.808-1.27-1.491-1.421-.328-.073-.614-.055-.858.053a.773.773 0 00-.457.573c-.05.228-.02.43.094.609.125.171.367.392.728.663l.925.679c.698.518 1.179 1.021 1.443 1.51.267.48.333 1.02.2 1.622-.18.81-.622 1.401-1.325 1.77-.702.361-1.512.44-2.433.236a4.098 4.098 0 01-1.932-.988 4.044 4.044 0 01-1.11-1.78zm11.758 3.311l-.517-7.514-2.947.202-.117-1.704 7.794-.535.117 1.704-2.961.203.516 7.515-1.885.13zm6.05-5.022c-.542-1.2-.558-2.43-.047-3.69.519-1.263 1.396-2.148 2.631-2.655 1.213-.558 2.459-.596 3.737-.113 1.287.478 2.184 1.325 2.692 2.54.542 1.198.549 2.432.02 3.7-.518 1.263-1.395 2.148-2.63 2.655-1.213.558-2.459.596-3.737.113-1.27-.486-2.159-1.336-2.666-2.55zm7.228-3.143c-.35-.805-.9-1.354-1.648-1.65-.745-.307-1.506-.291-2.285.047-.788.343-1.325.887-1.611 1.632-.287.745-.253 1.525.1 2.338.354.813.901 1.37 1.642 1.668.74.299 1.504.277 2.292-.065.778-.34 1.311-.881 1.598-1.627.295-.749.266-1.53-.088-2.343zm6.786-11.771l.427-.444 6.778 6.525-1.311 1.361-3.55-3.417.486 3.694-.428.443-3.71-.345 3.55 3.418-1.31 1.361-6.778-6.525.428-.443 6.31.652-.892-6.28zm9.812 1.883l-8.193-4.271.873-1.676 8.194 4.272-.874 1.675zm1.831-8.668l1.073-4.522 1.662.394-1.745 7.356-.49-.116-5.769-6.132-.93 3.924-1.662-.395 1.602-6.756.49.116 5.77 6.131zm3.111-9.756l-9.201.843-.568-6.19 1.701-.156.395 4.308 1.868-.17-.29-3.166 1.604-.147.29 3.165 2.328-.213-.41-4.475 1.7-.156.583 6.357z" fill="#739FF3"/><g clip-path="url(#clip0)" fill="#739FF3"><path d="M69.364 64.391l-5.132-5.131 2.517-2.517a.89.89 0 00-.348-1.473l-15.099-5.033a.89.89 0 00-1.125 1.126l5.033 15.099a.89.89 0 001.473.348l2.517-2.517 5.13 5.131a.887.887 0 001.259 0l3.775-3.775a.89.89 0 000-1.258zm-4.404 3.146l-5.131-5.131a.89.89 0 00-1.259 0l-2.127 2.127-4.016-12.045 12.046 4.015-2.128 2.128a.89.89 0 000 1.258l5.131 5.131-2.516 2.517zM50.821 46.434a.89.89 0 00.89-.89v-5.338a.89.89 0 00-1.78 0v5.339c0 .49.399.89.89.89zM43.9 42.706a.89.89 0 10-1.258 1.258l3.774 3.775a.89.89 0 101.259-1.258L43.9 42.706zm2.517 11.32l-3.775 3.775a.89.89 0 001.259 1.258l3.775-3.774a.89.89 0 00-1.259-1.259zm8.808-6.287L59 43.964a.89.89 0 00-1.258-1.258l-3.775 3.775a.89.89 0 101.258 1.258zm-8.853 3.143a.89.89 0 00-.89-.89h-5.338a.89.89 0 000 1.78h5.338a.89.89 0 00.89-.89z"/></g><defs><clipPath id="clip0"><path fill="#fff" transform="translate(39.254 39.316)" d="M0 0h30.37v30.37H0z"/></clipPath></defs></svg>
